src/xmb/retrosystem/rename.svg

<?xml version="1.0" encoding="UTF-8" standalone="no"?>
<svg
   xmlns:dc="http://purl.org/dc/elements/1.1/"
   xmlns:cc="http://creativecommons.org/ns#"
   xmlns:rdf="http://www.w3.org/1999/02/22-rdf-syntax-ns#"
   xmlns:svg="http://www.w3.org/2000/svg"
   xmlns="http://www.w3.org/2000/svg"
   xmlns:sodipodi="http://sodipodi.sourceforge.net/DTD/sodipodi-0.dtd"
   xmlns:inkscape="http://www.inkscape.org/namespaces/inkscape"
   viewBox="0 0 341.33334 341.33334"
   height="256"
   width="256"
   xml:space="preserve"
   id="svg2"
   version="1.1"
   sodipodi:docname="rename.svg"
   inkscape:version="0.92.3 (2405546, 2018-03-11)"
   inkscape:export-filename="C:\Users\Alfre\AppData\Roaming\RetroArch\assets\xmb\custom\png\rename.png"
   inkscape:export-xdpi="96"
   inkscape:export-ydpi="96"><sodipodi:namedview
     pagecolor="#ffffff"
     bordercolor="#666666"
     borderopacity="1"
     objecttolerance="10"
     gridtolerance="10"
     guidetolerance="10"
     inkscape:pageopacity="0"
     inkscape:pageshadow="2"
     inkscape:window-width="1920"
     inkscape:window-height="1001"
     id="namedview42"
     showgrid="false"
     inkscape:pagecheckerboard="true"
     inkscape:zoom="3.9111842"
     inkscape:cx="85.621336"
     inkscape:cy="148.99203"
     inkscape:window-x="-9"
     inkscape:window-y="-9"
     inkscape:window-maximized="1"
     inkscape:current-layer="svg2" /><metadata
     id="metadata8"><rdf:RDF><cc:Work
         rdf:about=""><dc:format>image/svg+xml</dc:format><dc:type
           rdf:resource="http://purl.org/dc/dcmitype/StillImage" /><dc:title /></cc:Work></rdf:RDF></metadata><defs
     id="defs6"><clipPath
       id="clipPath18"
       clipPathUnits="userSpaceOnUse"><path
         id="path16"
         d="M 0,256 H 256 V 0 H 0 Z" /></clipPath><clipPath
       id="clipPath26"
       clipPathUnits="userSpaceOnUse"><path
         id="path24"
         d="m 84,172 h 88 V 84 H 84 Z" /></clipPath><clipPath
       id="clipPath54"
       clipPathUnits="userSpaceOnUse"><path
         id="path52"
         d="M 0,256 H 256 V 0 H 0 Z" /></clipPath></defs><path
     id="path38"
     style="fill:#eac500;fill-opacity:1;fill-rule:nonzero;stroke:none;stroke-width:1.33333325"
     d="M 122.66666,218.66667 V 192 L 181.33333,133.33334 207.99999,160 149.33333,218.66667 Z"
     inkscape:connector-curvature="0" /><path
     id="path42"
     style="fill:#d4a600;fill-opacity:1;fill-rule:nonzero;stroke:none;stroke-width:1.33333325"
     d="m 133.33333,218.66667 h 16 L 207.99999,160 H 192 Z"
     inkscape:connector-curvature="0" /><path
     id="path46"
     style="fill:#ffff00;fill-opacity:1;fill-rule:nonzero;stroke:none;stroke-width:1.33333325"
     d="m 122.66666,208 58.66667,-58.66667 V 133.33334 L 122.66666,192 Z"
     inkscape:connector-curvature="0" /><g
     id="g56"
     transform="matrix(1.3333333,0,0,-1.3333333,192,122.66667)"><path
       inkscape:connector-curvature="0"
       d="M 0,0 -16,-16 4,-36 20,-20 C 20,-8 12,0 0,0"
       style="fill:#b80000;fill-opacity:1;fill-rule:nonzero;stroke:none"
       id="path58" /></g><g
     id="g60"
     transform="matrix(1.3333333,0,0,-1.3333333,122.66666,192)"><path
       inkscape:connector-curvature="0"
       d="M 0,0 C 12,0 20,-8 20,-20 H 0 Z"
       style="fill:#ffcc99;fill-opacity:1;fill-rule:nonzero;stroke:none"
       id="path62" /></g><g
     id="g64"
     transform="matrix(1.3333333,0,0,-1.3333333,122.66666,208)"
     style="fill:#4d4d4d;fill-opacity:1"><path
       inkscape:connector-curvature="0"
       d="M 0,0 C 4,0 8,-4 8,-8 H 0 Z"
       style="fill:#4d4d4d;fill-opacity:1;fill-rule:nonzero;stroke:none"
       id="path66" /></g><g
     id="g68"
     transform="matrix(1.3333333,0,0,-1.3333333,181.33333,133.33334)"><path
       inkscape:connector-curvature="0"
       d="m 0,0 -4,-4 c 12,0 20,-8 20,-20 l 4,4 C 20,-8 12,0 0,0"
       style="fill:#808080;fill-opacity:1;fill-rule:nonzero;stroke:none"
       id="path70" /></g><g
     id="g72"
     transform="matrix(1.3333333,0,0,-1.3333333,170.66666,144)"><path
       inkscape:connector-curvature="0"
       d="m 0,0 -4,-4 c 12,0 20,-8 20,-20 l 4,4 C 20,-8 12,0 0,0"
       style="fill:#808080;fill-opacity:1;fill-rule:nonzero;stroke:none"
       id="path74" /></g><g
     id="g76"
     transform="matrix(1.3333333,0,0,-1.3333333,165.33333,149.33333)"><path
       inkscape:connector-curvature="0"
       d="m 0,0 -4,-4 c 12,0 20,-8 20,-20 l 4,4 C 20,-8 12,0 0,0"
       style="fill:#999999;fill-opacity:1;fill-rule:nonzero;stroke:none"
       id="path78" /></g><g
     id="g80"
     transform="matrix(1.3333333,0,0,-1.3333333,176,138.66667)"><path
       inkscape:connector-curvature="0"
       d="m 0,0 -4,-4 c 12,0 20,-8 20,-20 l 4,4 C 20,-8 12,0 0,0"
       style="fill:#999999;fill-opacity:1;fill-rule:nonzero;stroke:none"
       id="path82" /></g><g
     id="g890"
     transform="translate(-88.975606,-68.180545)" /><path
     style="opacity:1;vector-effect:none;fill:none;fill-opacity:1;fill-rule:nonzero;stroke:#1a1a1a;stroke-width:1;stroke-linecap:round;stroke-linejoin:round;stroke-miterlimit:4;stroke-dasharray:none;stroke-dashoffset:0;stroke-opacity:1;paint-order:markers stroke fill"
     d="m 144,92 c 12,0 20,8 20,20 l -52.00001,51.99999 h -20 v -20 z"
     transform="scale(1.3333334)"
     id="rect911"
     inkscape:connector-curvature="0"
     sodipodi:nodetypes="cccccc" /></svg>

<svg xmlns="http://www.w3.org/2000/svg" xml:space="preserve" width="256" height="256" viewBox="0 0 341.333 341.333"><path d="M122.667 218.667V192l58.666-58.667L208 160l-58.667 58.667Z" style="fill:#eac500;fill-opacity:1;fill-rule:nonzero;stroke:none;stroke-width:1.33333325"/><path d="M133.333 218.667h16L208 160h-16Z" style="fill:#d4a600;fill-opacity:1;fill-rule:nonzero;stroke:none;stroke-width:1.33333325"/><path d="m122.667 208 58.666-58.667v-16L122.667 192Z" style="fill:#ff0;fill-opacity:1;fill-rule:nonzero;stroke:none;stroke-width:1.33333325"/><path d="m0 0-16-16L4-36l16 16C20-8 12 0 0 0" style="fill:#b80000;fill-opacity:1;fill-rule:nonzero;stroke:none" transform="matrix(1.33333 0 0 -1.33333 192 122.667)"/><path d="M0 0c12 0 20-8 20-20H0Z" style="fill:#fc9;fill-opacity:1;fill-rule:nonzero;stroke:none" transform="matrix(1.33333 0 0 -1.33333 122.667 192)"/><g style="fill:#4d4d4d;fill-opacity:1"><path d="M0 0c4 0 8-4 8-8H0Z" style="fill:#4d4d4d;fill-opacity:1;fill-rule:nonzero;stroke:none" transform="matrix(1.33333 0 0 -1.33333 122.667 208)"/></g><path d="m0 0-4-4c12 0 20-8 20-20l4 4C20-8 12 0 0 0" style="fill:gray;fill-opacity:1;fill-rule:nonzero;stroke:none" transform="matrix(1.33333 0 0 -1.33333 181.333 133.333)"/><path d="m0 0-4-4c12 0 20-8 20-20l4 4C20-8 12 0 0 0" style="fill:gray;fill-opacity:1;fill-rule:nonzero;stroke:none" transform="matrix(1.33333 0 0 -1.33333 170.667 144)"/><path d="m0 0-4-4c12 0 20-8 20-20l4 4C20-8 12 0 0 0" style="fill:#999;fill-opacity:1;fill-rule:nonzero;stroke:none" transform="matrix(1.33333 0 0 -1.33333 165.333 149.333)"/><path d="m0 0-4-4c12 0 20-8 20-20l4 4C20-8 12 0 0 0" style="fill:#999;fill-opacity:1;fill-rule:nonzero;stroke:none" transform="matrix(1.33333 0 0 -1.33333 176 138.667)"/><path d="M144 92c12 0 20 8 20 20l-52 52H92v-20z" style="opacity:1;vector-effect:none;fill:none;fill-opacity:1;fill-rule:nonzero;stroke:#1a1a1a;stroke-width:1;stroke-linecap:round;stroke-linejoin:round;stroke-miterlimit:4;stroke-dasharray:none;stroke-dashoffset:0;stroke-opacity:1;paint-order:markers stroke fill" transform="scale(1.33333)"/></svg>
